build/img/svg/icon-washable.svg

<svg width="16" height="16" viewBox="0 0 16 16" fill="none" xmlns="http://www.w3.org/2000/svg">
<path d="M0.417081 11.7391C0.509248 11.6467 0.619612 11.6202 0.749358 11.6202C1.35141 11.6257 1.95346 11.6202 2.55552 11.6253C2.60601 11.6273 2.6563 11.618 2.7028 11.5982C2.7493 11.5784 2.79086 11.5486 2.8245 11.5108C3.2086 11.1264 3.58993 10.7392 3.98826 10.3699C4.51991 9.87725 5.15004 9.71556 5.87235 9.79046C6.76435 9.8828 7.65952 9.9692 8.55983 9.90341C8.87629 9.88003 9.17771 9.92243 9.44116 10.1249C9.61359 10.255 9.74212 10.4349 9.80945 10.6404C9.87677 10.8458 9.87967 11.067 9.81774 11.2742C9.80389 11.3206 9.78886 11.3665 9.77462 11.4129L9.8035 11.4482C9.955 11.3404 10.1251 11.25 10.2552 11.1216C11.0464 10.3397 11.8209 9.54396 12.6112 8.76246C12.8875 8.48785 13.18 8.23006 13.487 7.99047C13.7509 7.7788 14.0743 7.65519 14.4119 7.63697C15.0448 7.60844 15.5547 8.08083 15.5812 8.71728C15.5912 8.88006 15.5667 9.04312 15.5091 9.19568C15.4516 9.34824 15.3623 9.48681 15.2473 9.60222C13.7969 11.1346 12.3503 12.6696 10.9075 14.2072C10.4048 14.7446 9.79994 15.0026 9.06774 14.9998C6.28928 14.9956 3.51108 14.9956 0.733141 14.9998C0.606164 14.9998 0.504107 14.9693 0.416687 14.8809L0.417081 11.7391ZM0.834799 14.5841H1.02467C3.6995 14.5841 6.37446 14.5841 9.04955 14.5841C9.67177 14.5841 10.1836 14.3717 10.6128 13.9124C12.0598 12.3632 13.5179 10.8248 14.9712 9.28241C15.203 9.0363 15.2334 8.69192 15.0503 8.38043C14.8921 8.10302 14.6061 7.99126 14.273 8.07567C13.8462 8.18426 13.5135 8.4474 13.2113 8.74938C12.3858 9.5729 11.5547 10.3913 10.7501 11.235C10.2552 11.7537 9.65912 12.0137 8.96371 12.0276C7.84386 12.0506 6.72361 12.0399 5.60336 12.043C5.5737 12.043 5.53572 12.0478 5.51634 12.0319C5.46215 11.9883 5.38343 11.9404 5.37394 11.8837C5.37059 11.8465 5.37525 11.809 5.3876 11.7737C5.39995 11.7384 5.41971 11.7062 5.44553 11.6792C5.49142 11.636 5.58082 11.6253 5.65123 11.6249C6.1892 11.621 6.72717 11.6249 7.26514 11.6226C7.78848 11.6226 8.31142 11.6277 8.83475 11.6178C9.23032 11.6103 9.51869 11.2156 9.4281 10.8315C9.34424 10.4804 9.05311 10.2835 8.64132 10.3164C7.79085 10.3829 6.94631 10.2993 6.1002 10.2371C5.796 10.2141 5.48667 10.1816 5.18604 10.2129C4.7343 10.2597 4.39095 10.5415 4.07647 10.847C3.71532 11.1981 3.3605 11.5564 3.00844 11.917C2.96884 11.9603 2.92021 11.9944 2.866 12.0168C2.81179 12.0392 2.75333 12.0494 2.69476 12.0466C2.12712 12.0426 1.55948 12.0466 0.993818 12.0466C0.941999 12.0466 0.89018 12.051 0.835591 12.0533L0.834799 14.5841Z" fill="#F6F6F6"/>
<path d="M8.63124 2.87925C8.77285 2.69933 8.89864 2.53486 9.02997 2.37475C9.1435 2.23605 9.27126 2.22575 9.37846 2.36009C9.96628 3.09721 10.5486 3.8375 10.9742 4.68757C11.3144 5.36722 11.327 6.03499 10.918 6.68571C10.1043 7.98161 8.22024 7.93604 7.45798 6.60288C7.40775 6.5157 7.3579 6.48161 7.25466 6.48399C6.08576 6.48994 5.16092 5.54873 5.22777 4.38004C5.24478 4.08162 5.37334 3.77687 5.50467 3.50025C5.84961 2.76828 6.34723 2.13301 6.83971 1.49655C6.903 1.41452 6.96748 1.33328 7.03196 1.25243C7.16645 1.08361 7.30015 1.07648 7.4295 1.24807C7.80292 1.74503 8.16961 2.24715 8.53709 2.74728C8.56676 2.78453 8.59326 2.82495 8.63124 2.87925ZM9.21391 2.81346C9.15338 2.88876 9.10948 2.94186 9.06755 2.99655C8.60315 3.60487 8.13599 4.2128 7.81399 4.91266C7.71866 5.11953 7.62808 5.34859 7.61977 5.57211C7.58021 6.63102 8.56715 7.41807 9.59761 7.16682C10.5114 6.94331 11.0454 5.93353 10.7131 5.1334C10.3543 4.27422 9.78115 3.5589 9.21391 2.81346ZM7.23607 6.06312C7.22513 6.01271 7.21772 5.9616 7.21392 5.91015C7.21392 5.71874 7.19493 5.52297 7.22737 5.33671C7.30332 4.90077 7.5193 4.52191 7.74793 4.15256C7.94018 3.84265 8.14785 3.54265 8.36423 3.21452L7.242 1.65349C6.69849 2.35692 6.17951 3.02786 5.81321 3.80064C5.67002 4.10342 5.59209 4.41412 5.65499 4.76009C5.78236 5.48452 6.48172 6.08016 7.23686 6.06273L7.23607 6.06312Z" fill="#F6F6F6"/>
<path d="M4.00789 2.64731C4.00195 2.76897 3.9268 2.82842 3.80338 2.84903C3.64911 2.87479 3.48692 2.88549 3.34492 2.94493C2.87419 3.14308 2.63052 3.51164 2.58503 4.01732C2.56881 4.19526 2.49445 4.28443 2.36905 4.27888C2.24366 4.27333 2.17127 4.17901 2.16533 4.00147C2.14955 3.71095 2.03018 3.43576 1.82893 3.226C1.62769 3.01623 1.35795 2.88584 1.06882 2.85854C1.01977 2.85458 0.970326 2.84942 0.922066 2.8415C0.808539 2.82287 0.746831 2.75391 0.744853 2.63978C0.742875 2.52565 0.812495 2.4555 0.920089 2.4341C1.02096 2.41428 1.12618 2.41627 1.22626 2.39447C1.4853 2.33586 1.71779 2.19324 1.88765 1.98874C2.05752 1.78423 2.15527 1.52928 2.16573 1.26343C2.17245 1.10214 2.24484 1.00861 2.36707 1.00029C2.45924 0.993945 2.57752 1.09381 2.58899 1.2448C2.64081 1.9411 3.07356 2.36396 3.77213 2.42618C3.92244 2.43886 4.0071 2.51534 4.00789 2.64731ZM2.94579 2.6382L2.37775 2.06951L1.80497 2.63938L2.37657 3.21006L2.94579 2.6382Z" fill="#F6F6F6"/>
<path d="M5.49434 7.83577C5.49434 7.97249 5.40494 8.04818 5.24593 8.05849C4.72971 8.09178 4.36302 8.34818 4.16207 8.82295C4.10392 8.96007 4.09364 9.11898 4.06832 9.26879C4.04301 9.41859 3.97457 9.48675 3.85274 9.48279C3.7309 9.47883 3.64981 9.39322 3.65021 9.25373C3.65021 8.64659 3.14032 8.06483 2.44571 8.05611C2.4172 8.05734 2.38873 8.05276 2.36204 8.04265C2.33535 8.03254 2.31098 8.01711 2.29042 7.99728C2.26985 7.97746 2.25352 7.95366 2.24241 7.92733C2.2313 7.90099 2.22564 7.87268 2.22577 7.84409C2.22775 7.72797 2.31003 7.65426 2.45243 7.64118C3.09127 7.58213 3.51532 7.21793 3.6328 6.62507C3.64153 6.56652 3.64668 6.50749 3.64823 6.44832C3.65891 6.29852 3.73565 6.21054 3.86025 6.21371C4.00068 6.21688 4.05804 6.30169 4.06793 6.43365C4.09918 6.94686 4.33652 7.32771 4.8112 7.53497C4.95677 7.59798 5.1237 7.6174 5.28351 7.6396C5.41365 7.65703 5.47892 7.71925 5.49434 7.83577ZM3.29222 7.84607C3.47655 8.03233 3.67909 8.23603 3.85986 8.41832L4.42987 7.84805L3.86184 7.27421L3.29222 7.84607Z" fill="#F6F6F6"/>
<path d="M15.254 3.90545C15.241 4.00254 15.1808 4.07031 15.0586 4.08695C14.9217 4.09945 14.7863 4.12438 14.6539 4.16146C14.4202 4.23868 14.2158 4.38601 14.0684 4.5835C13.921 4.78099 13.8378 5.01909 13.83 5.26555C13.8229 5.42724 13.7477 5.51681 13.6191 5.5172C13.4906 5.5176 13.4214 5.43794 13.4131 5.27942C13.3735 4.60096 12.8632 4.11271 12.2113 4.08576C12.0555 4.07942 11.9787 3.9958 11.989 3.86819C12.0005 3.72909 12.0915 3.67678 12.2196 3.66767C12.8838 3.6217 13.3217 3.20717 13.4063 2.54614C13.4107 2.51205 13.4127 2.47718 13.4154 2.4427C13.4245 2.32025 13.4945 2.24891 13.6132 2.24455C13.7418 2.24019 13.811 2.32104 13.8288 2.4427C13.8502 2.57348 13.8549 2.70981 13.8945 2.83464C13.9703 3.06892 14.116 3.27427 14.3119 3.42306C14.5078 3.57186 14.7445 3.65695 14.9902 3.66688C15.1603 3.67599 15.254 3.75446 15.254 3.90545ZM13.6215 3.311L13.0519 3.87889L13.6207 4.45155C13.8059 4.26648 14.0056 4.06634 14.1919 3.88048L13.6215 3.311Z" fill="#F6F6F6"/>
<path d="M9.15318 6.89844C8.52304 6.89051 7.93523 6.28774 7.94195 5.65722C7.94195 5.50108 8.02106 5.40399 8.14725 5.40003C8.27344 5.39606 8.34701 5.48721 8.35651 5.6493C8.38301 6.10425 8.72003 6.44547 9.17968 6.48153C9.33791 6.49421 9.42731 6.57625 9.41702 6.70108C9.40674 6.82592 9.30705 6.90082 9.15318 6.89844Z" fill="#F6F6F6"/>
</svg>

<svg width="16" height="16" fill="none" xmlns="http://www.w3.org/2000/svg"><path d="M.417 11.74c.092-.093.203-.12.332-.12.602.006 1.204 0 1.807.005a.341.341 0 00.268-.114c.385-.385.766-.772 1.164-1.141.532-.493 1.162-.654 1.884-.58.892.093 1.788.18 2.688.113.316-.023.618.02.881.222a1.059 1.059 0 01.377 1.15c-.014.046-.03.091-.043.138l.028.035c.152-.108.322-.198.452-.326.791-.782 1.566-1.578 2.356-2.36.276-.274.569-.532.876-.772a1.62 1.62 0 01.925-.353 1.107 1.107 0 011.17 1.08 1.154 1.154 0 01-.335.885c-1.45 1.533-2.897 3.068-4.34 4.605a2.39 2.39 0 01-1.84.793 2756.57 2756.57 0 00-8.334 0 .412.412 0 01-.316-.12v-3.14zm.418 2.844H9.05c.622 0 1.134-.212 1.563-.672 1.447-1.549 2.905-3.087 4.358-4.63.232-.246.262-.59.08-.902-.159-.277-.445-.389-.778-.304-.427.108-.76.371-1.062.673-.825.824-1.656 1.642-2.46 2.486a2.447 2.447 0 01-1.787.793c-1.12.023-2.24.012-3.36.015-.03 0-.068.005-.088-.011-.054-.044-.133-.092-.142-.148a.262.262 0 01.072-.205c.045-.043.135-.054.205-.054.538-.004 1.076 0 1.614-.002.523 0 1.046.005 1.57-.005.395-.008.684-.402.593-.787-.084-.35-.375-.547-.787-.515-.85.067-1.695-.017-2.54-.079-.305-.023-.614-.055-.915-.024-.452.047-.795.329-1.11.634-.36.351-.715.71-1.068 1.07a.4.4 0 01-.313.13c-.568-.004-1.136 0-1.701 0-.052 0-.104.004-.158.006l-.001 2.531zM8.631 2.88c.142-.18.268-.345.399-.505.114-.139.241-.15.348-.015.588.737 1.17 1.478 1.596 2.328.34.68.353 1.347-.056 1.998-.814 1.296-2.698 1.25-3.46-.083-.05-.087-.1-.121-.203-.119-1.17.006-2.094-.935-2.027-2.104.017-.298.145-.603.277-.88.345-.732.842-1.367 1.335-2.003.063-.082.127-.164.192-.245.134-.168.268-.176.397-.004.374.497.74 1 1.108 1.5.03.037.056.077.094.131zm.583-.067c-.06.076-.105.129-.146.184-.465.608-.932 1.216-1.254 1.916-.095.207-.186.436-.194.66-.04 1.058.947 1.845 1.978 1.594.913-.224 1.447-1.233 1.115-2.034-.359-.859-.932-1.574-1.5-2.32zm-1.978 3.25a1.105 1.105 0 01-.022-.153c0-.191-.02-.387.013-.573.076-.436.292-.815.52-1.184.193-.31.4-.61.617-.938L7.242 1.653c-.544.704-1.062 1.375-1.429 2.148-.143.302-.22.613-.158.96.127.724.827 1.32 1.582 1.302zM4.008 2.647c-.006.122-.081.181-.205.202-.154.026-.316.036-.458.096-.47.198-.714.567-.76 1.072-.016.178-.09.267-.216.262-.125-.006-.198-.1-.204-.278A1.215 1.215 0 001.07 2.86a1.809 1.809 0 01-.147-.018C.81 2.824.747 2.754.745 2.64c-.002-.114.067-.185.175-.206.101-.02.206-.018.306-.04a1.206 1.206 0 00.94-1.13c.006-.162.079-.255.201-.264.092-.006.21.094.222.245.052.696.485 1.119 1.183 1.181.15.013.235.09.236.221zm-1.062-.009l-.568-.568-.573.57.572.57.569-.572zm2.548 5.198c0 .136-.09.212-.248.222-.516.034-.883.29-1.084.765-.058.137-.068.296-.094.446-.025.15-.093.218-.215.214-.122-.004-.203-.09-.203-.23 0-.606-.51-1.188-1.204-1.197a.21.21 0 01-.22-.212c.002-.116.084-.19.226-.203.64-.059 1.063-.423 1.18-1.016.01-.058.015-.118.016-.177.01-.15.088-.237.212-.234.14.003.198.088.208.22.031.513.269.894.743 1.101.146.063.313.082.473.105.13.017.195.08.21.196zm-2.202.01l.568.572.57-.57-.568-.574-.57.572zm11.962-3.941c-.013.098-.073.165-.195.182a2.264 2.264 0 00-.405.074 1.2 1.2 0 00-.824 1.105c-.007.161-.082.25-.21.251-.13 0-.199-.08-.207-.238a1.238 1.238 0 00-1.202-1.193c-.155-.007-.232-.09-.222-.218.011-.139.102-.191.23-.2.665-.046 1.103-.46 1.187-1.122.005-.034.007-.069.01-.103.008-.123.079-.194.197-.198.129-.005.198.076.216.198.021.13.026.267.066.392a1.204 1.204 0 001.095.832c.17.009.264.087.264.238zm-1.633-.594l-.57.568.57.573.57-.572-.57-.569z" fill="#F6F6F6"/><path d="M9.153 6.898c-.63-.007-1.218-.61-1.211-1.24 0-.157.08-.254.205-.258.126-.004.2.087.21.25a.871.871 0 00.823.832c.158.012.247.094.237.22-.01.124-.11.199-.264.196z" fill="#F6F6F6"/></svg>
